fs/document_table_16_regular.svg

<svg viewBox="0 0 16 16" fill="none" xmlns="http://www.w3.org/2000/svg" height="1em" width="1em">
  <path d="M5 9.25V11.75C5 12.4404 5.55964 13 6.25 13H9.75C10.4404 13 11 12.4404 11 11.75V9.25C11 8.55964 10.4404 8 9.75 8H6.25C5.55964 8 5 8.55964 5 9.25ZM6 9.25C6 9.11193 6.11193 9 6.25 9H7V10H6V9.25ZM10 10H8V9H9.75C9.88807 9 10 9.11193 10 9.25V10ZM8 11H10V11.75C10 11.8881 9.88807 12 9.75 12H8V11ZM7 11V12H6.25C6.11193 12 6 11.8881 6 11.75V11H7ZM3 3C3 1.89543 3.89543 1 5 1H8.58579C8.98361 1 9.36514 1.15804 9.64645 1.43934L12.5607 4.35355C12.842 4.63486 13 5.01639 13 5.41421V13C13 14.1046 12.1046 15 11 15H5C3.89543 15 3 14.1046 3 13V3ZM5 2C4.44772 2 4 2.44772 4 3V13C4 13.5523 4.44772 14 5 14H11C11.5523 14 12 13.5523 12 13V6H9.5C8.67157 6 8 5.32843 8 4.5V2H5ZM9.5 5H11.7929L9 2.20711V4.5C9 4.77614 9.22386 5 9.5 5Z" fill="#212121"/>
</svg>

<svg viewBox="0 0 16 16" fill="none" xmlns="http://www.w3.org/2000/svg" height="1em" width="1em">
  <path d="M5 9.25v2.5c0 .69.56 1.25 1.25 1.25h3.5c.69 0 1.25-.56 1.25-1.25v-2.5C11 8.56 10.44 8 9.75 8h-3.5C5.56 8 5 8.56 5 9.25Zm1 0A.25.25 0 0 1 6.25 9H7v1H6v-.75Zm4 .75H8V9h1.75a.25.25 0 0 1 .25.25V10Zm-2 1h2v.75a.25.25 0 0 1-.25.25H8v-1Zm-1 0v1h-.75a.25.25 0 0 1-.25-.25V11h1ZM3 3a2 2 0 0 1 2-2h3.586a1.5 1.5 0 0 1 1.06.44l2.915 2.914A1.5 1.5 0 0 1 13 5.414V13a2 2 0 0 1-2 2H5a2 2 0 0 1-2-2V3Zm2-1a1 1 0 0 0-1 1v10a1 1 0 0 0 1 1h6a1 1 0 0 0 1-1V6H9.5A1.5 1.5 0 0 1 8 4.5V2H5Zm4.5 3h2.293L9 2.207V4.5a.5.5 0 0 0 .5.5Z" fill="#212121"/>
</svg>
